icons/text-dashed-underline-16.svg

<svg id="icons" xmlns="http://www.w3.org/2000/svg" viewBox="0 0 16 16"><defs><style>.cls-1{fill:none;}</style></defs><path d="M5,14H7v1H5Zm4,1h2V14H9ZM1,15H3V14H1Zm12-1v1h2V14ZM10.24738,8.98779,11.5083,12h1.08429L8.40637,2H7.59363L3.40735,12H4.49164l1.261-3.01221ZM8,3.61914,9.82874,7.98779H6.1712Z"/><rect class="cls-1" width="16" height="16"/></svg>

<svg xmlns="http://www.w3.org/2000/svg" viewBox="0 0 16 16"><path d="M5 14h2v1H5zm4 1h2v-1H9zm-8 0h2v-1H1zm12-1v1h2v-1zm-2.753-5.012L11.508 12h1.085L8.406 2h-.812L3.407 12h1.085l1.26-3.012zM8 3.619l1.829 4.369H6.17z"/><path fill="none" d="M0 0h16v16H0z"/></svg>
